adidas.svg

<svg viewBox="0 0 24 24" xmlns="http://www.w3.org/2000/svg"><path d="M17.6324 19.1182L11.0126 7.61344L15.7683 4.88183L24 19.1182L17.6324 19.1182M0 17.5063L4.7557 14.7562L7.27198 19.1182L0.92284 19.1182L1.35012e-07 17.5063M5.57395 12.6214L10.3297 9.87747L15.6637 19.1182C13.1694 19.1082 9.25989 19.1082 9.33299 19.112L5.57396 12.6214" fill="#000000"/></svg>

<svg viewBox="0 0 24 24" xmlns="http://www.w3.org/2000/svg"><path d="m17.632 19.118-6.62-11.505 4.756-2.731L24 19.118h-6.368M0 17.506l4.756-2.75 2.516 4.362H.922L0 17.506m5.574-4.885 4.756-2.744 5.334 9.241c-2.495-.01-6.404-.01-6.331-.006l-3.759-6.49"/></svg>
